src/pos-icons/currency-krw.svg

<svg height="24" viewBox="0 0 24 24" width="24" xmlns="http://www.w3.org/2000/svg"><path d="m2 3h2l1.33 6h4l1.34-6h2.66l1.34 6h4l1.33-6h2l-1.33 6h1.33v2h-1.78l-.44 2h2.22v2h-2.67l-1.33 6h-2.67l-1.33-6h-4l-1.33 6h-2.67l-1.33-6h-2.67v-2h2.22l-.44-2h-1.78v-2h1.33zm11.11 8h-2.22l-.45 2h3.12zm-5.78 7 .67-3h-1.33zm1.56-7h-3.11l.44 2h2.22zm7.78 7 .66-3h-1.33zm1.55-7h-3.11l.45 2h2.22zm-6.22-5-.67 3h1.34z"/></svg>

<?xml version="1.0" encoding="UTF-8"?><!DOCTYPE svg PUBLIC "-//W3C//DTD SVG 1.1//EN" "http://www.w3.org/Graphics/SVG/1.1/DTD/svg11.dtd"><svg xmlns="http://www.w3.org/2000/svg" xmlns:xlink="http://www.w3.org/1999/xlink" version="1.1" id="mdi-currency-krw" width="24" height="24" viewBox="0 0 24 24"><path d="M2,3H4L5.33,9H9.33L10.67,3H13.33L14.67,9H18.67L20,3H22L20.67,9H22V11H20.22L19.78,13H22V15H19.33L18,21H15.33L14,15H10L8.67,21H6L4.67,15H2V13H4.22L3.78,11H2V9H3.33L2,3M13.11,11H10.89L10.44,13H13.56L13.11,11M7.33,18L8,15H6.67L7.33,18M8.89,11H5.78L6.22,13H8.44L8.89,11M16.67,18L17.33,15H16L16.67,18M18.22,11H15.11L15.56,13H17.78L18.22,11M12,6L11.33,9H12.67L12,6Z" /></svg>
